images/mac.svg

<svg xmlns="http://www.w3.org/2000/svg" viewBox="0 0 3 3"><g transform="matrix(.16734 0 0 .16734.366.222)" fill="#030104"><path d="m10.668 7.333c-.018-1.749 1.426-2.586 1.49-2.628-.811-1.185-2.073-1.348-2.524-1.366-1.073-.11-2.096.632-2.642.632-.544 0-1.386-.617-2.277-.601-1.172.018-2.251.682-2.855 1.73-1.217 2.112-.312 5.24.874 6.955.58.838 1.272 1.779 2.179 1.746.874-.035 1.204-.566 2.261-.566 1.057 0 1.354.566 2.278.549.941-.018 1.536-.855 2.111-1.695.666-.973.94-1.916.957-1.963-.022-.012-1.833-.705-1.852-2.793"/><path d="m8.93 2.204c.481-.583.807-1.395.718-2.204-.695.028-1.534.461-2.033 1.045-.447.517-.836 1.342-.732 2.135.774.061 1.566-.394 2.047-.976"/></g></svg>

<?xml version="1.0" encoding="UTF-8" standalone="no"?>
<!-- Generator: Adobe Illustrator 18.1.1, SVG Export Plug-In . SVG Version: 6.00 Build 0)  -->

<svg
   xmlns:dc="http://purl.org/dc/elements/1.1/"
   xmlns:cc="http://creativecommons.org/ns#"
   xmlns:rdf="http://www.w3.org/1999/02/22-rdf-syntax-ns#"
   xmlns:svg="http://www.w3.org/2000/svg"
   xmlns="http://www.w3.org/2000/svg"
   xmlns:sodipodi="http://sodipodi.sourceforge.net/DTD/sodipodi-0.dtd"
   xmlns:inkscape="http://www.inkscape.org/namespaces/inkscape"
   version="1.1"
   id="Capa_1"
   x="0px"
   y="0px"
   viewBox="0 0 3 3"
   xml:space="preserve"
   inkscape:version="0.91 r13725"
   sodipodi:docname="mac.svg"
   width="3"
   height="3"><metadata
     id="metadata45"><rdf:RDF><cc:Work
         rdf:about=""><dc:format>image/svg+xml</dc:format><dc:type
           rdf:resource="http://purl.org/dc/dcmitype/StillImage" /><dc:title></dc:title></cc:Work></rdf:RDF></metadata><defs
     id="defs43" /><sodipodi:namedview
     pagecolor="#ffffff"
     bordercolor="#666666"
     borderopacity="1"
     objecttolerance="10"
     gridtolerance="10"
     guidetolerance="10"
     inkscape:pageopacity="0"
     inkscape:pageshadow="2"
     inkscape:window-width="926"
     inkscape:window-height="572"
     id="namedview41"
     showgrid="false"
     inkscape:zoom="17.098971"
     inkscape:cx="5.8775466"
     inkscape:cy="6.901"
     inkscape:window-x="0"
     inkscape:window-y="0"
     inkscape:window-maximized="0"
     inkscape:current-layer="Capa_1" /><g
     id="g3"
     transform="matrix(0.16734367,0,0,0.16734367,0.36577249,0.22232827)"><g
       id="g5"><path
         style="fill:#030104"
         d="M 10.668,7.333 C 10.65,5.584 12.094,4.747 12.158,4.705 11.347,3.52 10.085,3.357 9.634,3.339 8.561,3.229 7.538,3.971 6.992,3.971 6.448,3.971 5.606,3.354 4.715,3.37 3.543,3.388 2.464,4.052 1.86,5.1 c -1.217,2.112 -0.312,5.24 0.874,6.955 0.58,0.838 1.272,1.779 2.179,1.746 0.874,-0.035 1.204,-0.566 2.261,-0.566 1.057,0 1.354,0.566 2.278,0.549 0.941,-0.018 1.536,-0.855 2.111,-1.695 0.666,-0.973 0.94,-1.916 0.957,-1.963 -0.022,-0.012 -1.833,-0.705 -1.852,-2.793 z"
         id="path7"
         inkscape:connector-curvature="0" /><path
         style="fill:#030104"
         d="M 8.93,2.204 C 9.411,1.621 9.737,0.809 9.648,0 8.953,0.028 8.114,0.461 7.615,1.045 7.168,1.562 6.779,2.387 6.883,3.18 7.657,3.241 8.449,2.786 8.93,2.204 Z"
         id="path9"
         inkscape:connector-curvature="0" /></g></g><g
     id="g11"
     transform="translate(0,-10.802)" /><g
     id="g13"
     transform="translate(0,-10.802)" /><g
     id="g15"
     transform="translate(0,-10.802)" /><g
     id="g17"
     transform="translate(0,-10.802)" /><g
     id="g19"
     transform="translate(0,-10.802)" /><g
     id="g21"
     transform="translate(0,-10.802)" /><g
     id="g23"
     transform="translate(0,-10.802)" /><g
     id="g25"
     transform="translate(0,-10.802)" /><g
     id="g27"
     transform="translate(0,-10.802)" /><g
     id="g29"
     transform="translate(0,-10.802)" /><g
     id="g31"
     transform="translate(0,-10.802)" /><g
     id="g33"
     transform="translate(0,-10.802)" /><g
     id="g35"
     transform="translate(0,-10.802)" /><g
     id="g37"
     transform="translate(0,-10.802)" /><g
     id="g39"
     transform="translate(0,-10.802)" /></svg>
